X: 31840
T: Paudy Scully's
R: slide
M: 12/8
K: Gmajor
|:B|d2B BAB g2e f2e|d2B BAB e3 e2g|
d2B BAB g2e f2e|d2B ABA G3 G2:|
|:g|f2a e2g faf e2g|d2B BAB e3 e2g|
faf e2g faf e2g|d2B ABA G3 G2:|

